Newaita-dark/apps/24/com.github.danrabbit.nimbus.svg

<svg height="24" viewBox="0 0 24 24" width="24" xmlns="http://www.w3.org/2000/svg" xmlns:xlink="http://www.w3.org/1999/xlink"><linearGradient id="a"><stop offset="0" stop-opacity=".313726"/><stop offset=".222222" stop-opacity=".27451"/><stop offset="1" stop-opacity="0"/></linearGradient><radialGradient id="b" cx="450.908936" cy="189.579361" gradientTransform="matrix(.00000013 -.0585994 -.105479 -.00000008 33.392364 47.696497)" gradientUnits="userSpaceOnUse" r="21.166656" xlink:href="#a"/><radialGradient id="c" cx="450.908936" cy="189.579361" gradientTransform="matrix(-.00000013 .0585994 .105479 .00000008 -9.577589 -5.645612)" gradientUnits="userSpaceOnUse" r="21.166656" xlink:href="#a"/><radialGradient id="d" cx="450.908936" cy="189.579361" gradientTransform="matrix(-.00000013 -.0585994 .105479 -.00000008 -9.577589 47.696497)" gradientUnits="userSpaceOnUse" r="21.166656" xlink:href="#a"/><radialGradient id="e" cx="450.908936" cy="189.579361" gradientTransform="matrix(.00000013 .0585994 -.105479 .00000008 33.392362 -5.645612)" gradientUnits="userSpaceOnUse" r="21.166656" xlink:href="#a"/><linearGradient id="f" gradientTransform="matrix(.01002 0 0 .0468795 9.34904 10.079088)" gradientUnits="userSpaceOnUse" x1="255.323059" x2="255.323044" y1="233.5" y2="254.666656"><stop offset="0" stop-opacity=".27451"/><stop offset="1" stop-opacity="0"/></linearGradient><linearGradient id="g" gradientUnits="userSpaceOnUse" x1="11.907393" x2="11.907393" y1="2.17207774998" y2="21.02545025"><stop offset="0" stop-color="#64b5f6"/><stop offset="1" stop-color="#42a5f5"/></linearGradient><linearGradient id="h" gradientUnits="userSpaceOnUse" x1="11.90736" x2="11.90736" y1="21.02539814717" y2="2.17207777507"><stop offset="0" stop-color="#bdbdbd"/><stop offset="1" stop-color="#e0e0e0"/></linearGradient><path d="m13.644531 21.027344h1.984375v-.996094h-1.984375zm0 0" fill="url(#b)"/><path d="m10.171875 21.027344h-1.984375v.992187h1.984375zm0 0" fill="url(#c)"/><path d="m10.171875 21.027344h-1.984375v-.996094h1.984375zm0 0" fill="url(#d)"/><path d="m13.644531 21.027344h1.984375v.992187h-1.984375zm0 0" fill="url(#e)"/><path d="m10.171875 20.777344h3.472656v1.242187h-3.472656zm0 0" fill="url(#f)"/><path d="m11.90625 2.171875c5.207031 0 9.429688 4.21875 9.429688 9.425781 0 5.207032-4.222657 9.429688-9.429688 9.429688-5.203125 0-9.425781-4.222656-9.425781-9.429688 0-5.207031 4.222656-9.425781 9.425781-9.425781zm0 0" fill="url(#g)"/><path d="m11.90625 21.027344c-5.222656 0-9.425781-4.207032-9.425781-9.429688 0-.03125 0-.058594 0-.089844.050781 5.179688 4.234375 9.332032 9.425781 9.332032s9.378906-4.152344 9.425781-9.332032c0 .03125.003907.058594.003907.089844 0 5.222656-4.207032 9.429688-9.429688 9.429688zm0 0" fill-opacity=".196078"/><path d="m11.90625 2.171875c-5.222656 0-9.425781 4.203125-9.425781 9.425781v.09375c.050781-5.179687 4.234375-9.335937 9.425781-9.335937s9.378906 4.15625 9.425781 9.335937c0-.03125.003907-.0625.003907-.09375 0-5.222656-4.207032-9.425781-9.429688-9.425781zm0 0" fill="#fff" fill-opacity=".392157"/><path d="m11.90625 2.101562c-5.257812 0-9.496094 4.238282-9.496094 9.496094 0 5.261719 4.238282 9.5 9.496094 9.5 5.261719 0 9.5-4.238281 9.5-9.5 0-5.257812-4.238281-9.496094-9.5-9.496094zm0 .140626c5.1875 0 9.359375 4.171874 9.359375 9.355468 0 5.1875-4.171875 9.359375-9.359375 9.359375-5.183594 0-9.355469-4.171875-9.355469-9.359375 0-5.183594 4.171875-9.355468 9.355469-9.355468zm0 0" fill="#212121"/><path d="m13.148438 6.636719c-1.324219 0-2.421876.933593-2.675782 2.179687-.238281-.125-.507812-.195312-.796875-.195312-.964843 0-1.738281.773437-1.738281 1.738281 0 .125.015625.242187.039062.359375-.890624.296875-1.527343 1.128906-1.527343 2.121094 0 1.234375.996093 2.230468 2.234375 2.230468h6.695312v-.011718c1.121094-.125 1.984375-1.066406 1.984375-2.21875 0-1.089844-.773437-1.996094-1.804687-2.191406.203125-.382813.316406-.820313.316406-1.28125 0-1.511719-1.214844-2.730469-2.726562-2.730469zm0 0" fill="url(#h)"/><path d="m13.148438 6.636719c-1.324219 0-2.421876.933593-2.675782 2.179687-.238281-.125-.507812-.195312-.796875-.195312-.964843 0-1.738281.773437-1.738281 1.738281 0 .050781.003906.101563.007812.152344.078126-.886719.820313-1.578125 1.730469-1.578125.289063 0 .558594.066406.796875.191406.253906-1.246094 1.351563-2.175781 2.675782-2.175781 1.457031 0 2.644531 1.132812 2.722656 2.570312.003906-.050781.003906-.101562.003906-.152343 0-1.511719-1.214844-2.730469-2.726562-2.730469zm2.601562 4.054687c-.050781.15625-.113281.308594-.191406.453125.042968.007813.085937.015625.128906.027344.023438-.054687.042969-.113281.0625-.167969.886719.25 1.542969 1.035156 1.609375 1.988282.003906-.050782.003906-.101563.003906-.152344 0-1.023438-.679687-1.882813-1.613281-2.148438zm-7.8125.039063c-.867188.308593-1.488281 1.132812-1.488281 2.109375 0 .050781.003906.101562.007812.152344.0625-.90625.660157-1.664063 1.484375-1.949219 0 .039062-.003906.082031-.003906.121093 0 .023438 0 .042969.003906.0625.011719-.003906.023438-.007812.035156-.011718-.023437-.117188-.039062-.234375-.039062-.359375 0-.03125 0-.0625.003906-.09375 0-.011719 0-.019531-.003906-.03125zm0 0" fill="#fff"/><path d="m15.863281 9.621094c-.03125.367187-.140625.714844-.304687 1.027344.066406.011718.128906.027343.195312.042968.078125-.257812.121094-.53125.121094-.816406 0-.085938-.003906-.167969-.011719-.253906zm-7.90625.992187c-.007812.039063-.011719.078125-.011719.117188.007813-.003907.019532-.007813.03125-.011719-.007812-.035156-.015624-.070312-.019531-.105469zm-1.492187 2.480469c-.011719.082031-.015625.167969-.015625.253906 0 1.238282.996093 2.234375 2.234375 2.234375h6.695312v-.015625c1.121094-.121094 1.984375-1.066406 1.984375-2.21875 0-.085937-.003906-.171875-.011719-.253906-.117187 1.035156-.933593 1.851562-1.972656 1.964844v.011718h-6.695312c-1.152344 0-2.09375-.859374-2.21875-1.976562zm0 0" fill-opacity=".235294"/><path d="m1060.056306 535.067042c-106.761464 0-195.256955 75.268407-215.727442 175.731259-19.210765-10.077778-40.940975-15.746528-64.245837-15.746528-77.787851 0-140.144104 62.356253-140.144104 140.144104 0 10.077779 1.259722 19.525696 3.149305 28.973613-71.80417 23.934723-123.137853 91.014935-123.137853 171.007301 0 99.51806 80.307295 179.825356 180.140287 179.825356h539.791v-.944792c90.385075-10.077778 159.984731-85.976046 159.984731-178.880564 0-87.86563-62.356253-160.929523-145.497924-176.676051 16.376389-30.863196 25.509376-66.135421 25.509376-103.297228 0-121.878131-97.943408-220.13647-219.821539-220.13647zm0 0" fill="none" stroke="#212121" stroke-linecap="round" stroke-linejoin="round" stroke-width="11.338583" transform="scale(.0124035)"/></svg>

<?xml version="1.0" encoding="UTF-8"?>
<svg xmlns="http://www.w3.org/2000/svg" xmlns:xlink="http://www.w3.org/1999/xlink" width="24px" height="24px" viewBox="0 0 24 24" version="1.1">
<defs>
<radialGradient id="radial0" gradientUnits="userSpaceOnUse" cx="450.908936" cy="189.579361" fx="450.908936" fy="189.579361" r="21.166656" gradientTransform="matrix(0.000000130628,-0.0585994,-0.105479,-0.0000000761539,33.392364,47.696497)">
<stop offset="0" style="stop-color:rgb(0%,0%,0%);stop-opacity:0.313726;"/>
<stop offset="0.222222" style="stop-color:rgb(0%,0%,0%);stop-opacity:0.27451;"/>
<stop offset="1" style="stop-color:rgb(0%,0%,0%);stop-opacity:0;"/>
</radialGradient>
<radialGradient id="radial1" gradientUnits="userSpaceOnUse" cx="450.908936" cy="189.579361" fx="450.908936" fy="189.579361" r="21.166656" gradientTransform="matrix(-0.000000130628,0.0585994,0.105479,0.0000000761539,-9.577589,-5.645612)">
<stop offset="0" style="stop-color:rgb(0%,0%,0%);stop-opacity:0.313726;"/>
<stop offset="0.222222" style="stop-color:rgb(0%,0%,0%);stop-opacity:0.27451;"/>
<stop offset="1" style="stop-color:rgb(0%,0%,0%);stop-opacity:0;"/>
</radialGradient>
<radialGradient id="radial2" gradientUnits="userSpaceOnUse" cx="450.908936" cy="189.579361" fx="450.908936" fy="189.579361" r="21.166656" gradientTransform="matrix(-0.000000130628,-0.0585994,0.105479,-0.0000000761539,-9.577589,47.696497)">
<stop offset="0" style="stop-color:rgb(0%,0%,0%);stop-opacity:0.313726;"/>
<stop offset="0.222222" style="stop-color:rgb(0%,0%,0%);stop-opacity:0.27451;"/>
<stop offset="1" style="stop-color:rgb(0%,0%,0%);stop-opacity:0;"/>
</radialGradient>
<radialGradient id="radial3" gradientUnits="userSpaceOnUse" cx="450.908936" cy="189.579361" fx="450.908936" fy="189.579361" r="21.166656" gradientTransform="matrix(0.000000130628,0.0585994,-0.105479,0.0000000761539,33.392362,-5.645612)">
<stop offset="0" style="stop-color:rgb(0%,0%,0%);stop-opacity:0.313726;"/>
<stop offset="0.222222" style="stop-color:rgb(0%,0%,0%);stop-opacity:0.27451;"/>
<stop offset="1" style="stop-color:rgb(0%,0%,0%);stop-opacity:0;"/>
</radialGradient>
<linearGradient id="linear0" gradientUnits="userSpaceOnUse" x1="255.323059" y1="233.5" x2="255.323044" y2="254.666656" gradientTransform="matrix(0.01002,0,0,0.0468795,9.34904,10.079088)">
<stop offset="0" style="stop-color:rgb(0%,0%,0%);stop-opacity:0.27451;"/>
<stop offset="1" style="stop-color:rgb(0%,0%,0%);stop-opacity:0;"/>
</linearGradient>
<linearGradient id="linear1" gradientUnits="userSpaceOnUse" x1="254" y1="-168.666672" x2="254" y2="233.5" gradientTransform="matrix(0.0468795,0,0,0.0468795,0,10.079087)">
<stop offset="0" style="stop-color:rgb(39.215687%,70.980394%,96.470588%);stop-opacity:1;"/>
<stop offset="1" style="stop-color:rgb(25.882354%,64.705884%,96.078432%);stop-opacity:1;"/>
</linearGradient>
<linearGradient id="linear2" gradientUnits="userSpaceOnUse" x1="960" y1="1695.118164" x2="960" y2="175.118134" gradientTransform="matrix(0.0124035,0,0,0.0124035,0,0.00000000000000141)">
<stop offset="0" style="stop-color:rgb(74.117649%,74.117649%,74.117649%);stop-opacity:1;"/>
<stop offset="1" style="stop-color:rgb(87.843138%,87.843138%,87.843138%);stop-opacity:1;"/>
</linearGradient>
</defs>
<g id="surface1">
<path style=" stroke:none;fill-rule:nonzero;fill:url(#radial0);" d="M 13.644531 21.027344 L 15.628906 21.027344 L 15.628906 20.03125 L 13.644531 20.03125 Z M 13.644531 21.027344 "/>
<path style=" stroke:none;fill-rule:nonzero;fill:url(#radial1);" d="M 10.171875 21.027344 L 8.1875 21.027344 L 8.1875 22.019531 L 10.171875 22.019531 Z M 10.171875 21.027344 "/>
<path style=" stroke:none;fill-rule:nonzero;fill:url(#radial2);" d="M 10.171875 21.027344 L 8.1875 21.027344 L 8.1875 20.03125 L 10.171875 20.03125 Z M 10.171875 21.027344 "/>
<path style=" stroke:none;fill-rule:nonzero;fill:url(#radial3);" d="M 13.644531 21.027344 L 15.628906 21.027344 L 15.628906 22.019531 L 13.644531 22.019531 Z M 13.644531 21.027344 "/>
<path style=" stroke:none;fill-rule:nonzero;fill:url(#linear0);" d="M 10.171875 20.777344 L 13.644531 20.777344 L 13.644531 22.019531 L 10.171875 22.019531 Z M 10.171875 20.777344 "/>
<path style=" stroke:none;fill-rule:nonzero;fill:url(#linear1);" d="M 11.90625 2.171875 C 17.113281 2.171875 21.335938 6.390625 21.335938 11.597656 C 21.335938 16.804688 17.113281 21.027344 11.90625 21.027344 C 6.703125 21.027344 2.480469 16.804688 2.480469 11.597656 C 2.480469 6.390625 6.703125 2.171875 11.90625 2.171875 Z M 11.90625 2.171875 "/>
<path style=" stroke:none;fill-rule:nonzero;fill:rgb(0%,0%,0%);fill-opacity:0.196078;" d="M 11.90625 21.027344 C 6.683594 21.027344 2.480469 16.820312 2.480469 11.597656 C 2.480469 11.566406 2.480469 11.539062 2.480469 11.507812 C 2.53125 16.6875 6.714844 20.839844 11.90625 20.839844 C 17.097656 20.839844 21.285156 16.6875 21.332031 11.507812 C 21.332031 11.539062 21.335938 11.566406 21.335938 11.597656 C 21.335938 16.820312 17.128906 21.027344 11.90625 21.027344 Z M 11.90625 21.027344 "/>
<path style=" stroke:none;fill-rule:nonzero;fill:rgb(100%,100%,100%);fill-opacity:0.392157;" d="M 11.90625 2.171875 C 6.683594 2.171875 2.480469 6.375 2.480469 11.597656 C 2.480469 11.628906 2.480469 11.660156 2.480469 11.691406 C 2.53125 6.511719 6.714844 2.355469 11.90625 2.355469 C 17.097656 2.355469 21.285156 6.511719 21.332031 11.691406 C 21.332031 11.660156 21.335938 11.628906 21.335938 11.597656 C 21.335938 6.375 17.128906 2.171875 11.90625 2.171875 Z M 11.90625 2.171875 "/>
<path style=" stroke:none;fill-rule:nonzero;fill:rgb(12.941177%,12.941177%,12.941177%);fill-opacity:1;" d="M 11.90625 2.101562 C 6.648438 2.101562 2.410156 6.339844 2.410156 11.597656 C 2.410156 16.859375 6.648438 21.097656 11.90625 21.097656 C 17.167969 21.097656 21.40625 16.859375 21.40625 11.597656 C 21.40625 6.339844 17.167969 2.101562 11.90625 2.101562 Z M 11.90625 2.242188 C 17.09375 2.242188 21.265625 6.414062 21.265625 11.597656 C 21.265625 16.785156 17.09375 20.957031 11.90625 20.957031 C 6.722656 20.957031 2.550781 16.785156 2.550781 11.597656 C 2.550781 6.414062 6.722656 2.242188 11.90625 2.242188 Z M 11.90625 2.242188 "/>
<path style=" stroke:none;fill-rule:nonzero;fill:url(#linear2);" d="M 13.148438 6.636719 C 11.824219 6.636719 10.726562 7.570312 10.472656 8.816406 C 10.234375 8.691406 9.964844 8.621094 9.675781 8.621094 C 8.710938 8.621094 7.9375 9.394531 7.9375 10.359375 C 7.9375 10.484375 7.953125 10.601562 7.976562 10.71875 C 7.085938 11.015625 6.449219 11.847656 6.449219 12.839844 C 6.449219 14.074219 7.445312 15.070312 8.683594 15.070312 L 15.378906 15.070312 L 15.378906 15.058594 C 16.5 14.933594 17.363281 13.992188 17.363281 12.839844 C 17.363281 11.75 16.589844 10.84375 15.558594 10.648438 C 15.761719 10.265625 15.875 9.828125 15.875 9.367188 C 15.875 7.855469 14.660156 6.636719 13.148438 6.636719 Z M 13.148438 6.636719 "/>
<path style=" stroke:none;fill-rule:nonzero;fill:rgb(100%,100%,100%);fill-opacity:1;" d="M 13.148438 6.636719 C 11.824219 6.636719 10.726562 7.570312 10.472656 8.816406 C 10.234375 8.691406 9.964844 8.621094 9.675781 8.621094 C 8.710938 8.621094 7.9375 9.394531 7.9375 10.359375 C 7.9375 10.410156 7.941406 10.460938 7.945312 10.511719 C 8.023438 9.625 8.765625 8.933594 9.675781 8.933594 C 9.964844 8.933594 10.234375 9 10.472656 9.125 C 10.726562 7.878906 11.824219 6.949219 13.148438 6.949219 C 14.605469 6.949219 15.792969 8.082031 15.871094 9.519531 C 15.875 9.46875 15.875 9.417969 15.875 9.367188 C 15.875 7.855469 14.660156 6.636719 13.148438 6.636719 Z M 15.75 10.691406 C 15.699219 10.847656 15.636719 11 15.558594 11.144531 C 15.601562 11.152344 15.644531 11.160156 15.6875 11.171875 C 15.710938 11.117188 15.730469 11.058594 15.75 11.003906 C 16.636719 11.253906 17.292969 12.039062 17.359375 12.992188 C 17.363281 12.941406 17.363281 12.890625 17.363281 12.839844 C 17.363281 11.816406 16.683594 10.957031 15.75 10.691406 Z M 7.9375 10.730469 C 7.070312 11.039062 6.449219 11.863281 6.449219 12.839844 C 6.449219 12.890625 6.453125 12.941406 6.457031 12.992188 C 6.519531 12.085938 7.117188 11.328125 7.941406 11.042969 C 7.941406 11.082031 7.9375 11.125 7.9375 11.164062 C 7.9375 11.1875 7.9375 11.207031 7.941406 11.226562 C 7.953125 11.222656 7.964844 11.21875 7.976562 11.214844 C 7.953125 11.097656 7.9375 10.980469 7.9375 10.855469 C 7.9375 10.824219 7.9375 10.792969 7.941406 10.761719 C 7.941406 10.75 7.941406 10.742188 7.9375 10.730469 Z M 7.9375 10.730469 "/>
<path style=" stroke:none;fill-rule:nonzero;fill:rgb(0%,0%,0%);fill-opacity:0.235294;" d="M 15.863281 9.621094 C 15.832031 9.988281 15.722656 10.335938 15.558594 10.648438 C 15.625 10.660156 15.6875 10.675781 15.753906 10.691406 C 15.832031 10.433594 15.875 10.160156 15.875 9.875 C 15.875 9.789062 15.871094 9.707031 15.863281 9.621094 Z M 7.957031 10.613281 C 7.949219 10.652344 7.945312 10.691406 7.945312 10.730469 C 7.953125 10.726562 7.964844 10.722656 7.976562 10.71875 C 7.96875 10.683594 7.960938 10.648438 7.957031 10.613281 Z M 6.464844 13.09375 C 6.453125 13.175781 6.449219 13.261719 6.449219 13.347656 C 6.449219 14.585938 7.445312 15.582031 8.683594 15.582031 L 15.378906 15.582031 L 15.378906 15.566406 C 16.5 15.445312 17.363281 14.5 17.363281 13.347656 C 17.363281 13.261719 17.359375 13.175781 17.351562 13.09375 C 17.234375 14.128906 16.417969 14.945312 15.378906 15.058594 L 15.378906 15.070312 L 8.683594 15.070312 C 7.53125 15.070312 6.589844 14.210938 6.464844 13.09375 Z M 6.464844 13.09375 "/>
<path style="fill:none;stroke-width:11.338583;stroke-linecap:round;stroke-linejoin:round;stroke:rgb(12.941177%,12.941177%,12.941177%);stroke-opacity:1;stroke-miterlimit:4;" d="M 1060.056306 535.067042 C 953.294842 535.067042 864.799351 610.335449 844.328864 710.798301 C 825.118099 700.720523 803.387889 695.051773 780.083027 695.051773 C 702.295176 695.051773 639.938923 757.408026 639.938923 835.195877 C 639.938923 845.273656 641.198645 854.721573 643.088228 864.16949 C 571.284058 888.104213 519.950375 955.184425 519.950375 1035.176791 C 519.950375 1134.694851 600.25767 1215.002147 700.090662 1215.002147 L 1239.881662 1215.002147 L 1239.881662 1214.057355 C 1330.266737 1203.979577 1399.866393 1128.081309 1399.866393 1035.176791 C 1399.866393 947.311161 1337.51014 874.247268 1254.368469 858.50074 C 1270.744858 827.637544 1279.877845 792.365319 1279.877845 755.203512 C 1279.877845 633.325381 1181.934437 535.067042 1060.056306 535.067042 Z M 1060.056306 535.067042 " transform="matrix(0.0124035,0,0,0.0124035,0,0)"/>
</g>
</svg>
